X: 43467
T: Yellow Flail, The
R: jig
M: 6/8
K: Gmajor
|:d/c/|B2 B GAB|c2 c c2 A|GBd cBA|G2 G G2 A|
B2 B GAB|c2 c c2 A|GBd cBA|G2 G G2:|
|:c|Bcd def|gfe d2 c|Bcd def|gfe def|
g2 gdB|c2 c c2 A|GBd cBA|G2 G G2:|

